SharedPackages/Infrastructure/DesignResourcesKitIcons/Sources/DesignResourcesKitIcons/DesignSystemImages.xcassets/Color/24px/Bookmark-Import-Color-24.imageset/Bookmark-Import-Color-24.svg

<svg width="24" height="24" viewBox="0 0 24 24" fill="none" xmlns="http://www.w3.org/2000/svg">
<path d="M13.4062 2.625C15.5441 2.625 17.2232 3.93797 17.5 6C17.3071 5.98206 17.1976 6.25 17 6.25C13.5482 6.25 10.75 9.04822 10.75 12.5C10.75 15.9518 13.5482 18.75 17 18.75L17.5 19L17.625 19.1318C17.625 20.7477 15.8827 21.7637 14.4766 20.9678L12.0391 19.5879C11.3945 19.2231 10.6055 19.2231 9.96094 19.5879L7.52344 20.9678C6.11726 21.7637 4.375 20.7477 4.375 19.1318V6.84375C4.375 4.5138 6.2638 2.625 8.59375 2.625H13.4062Z" fill="#4397E0"/>
<path d="M13.4062 2C15.4757 2 17.241 3.29791 17.9344 5.12409C18.1613 5.72157 17.5893 6.24599 16.9502 6.25098C16.6675 4.54835 15.189 3.25 13.4062 3.25H8.59375C6.60898 3.25 5 4.85898 5 6.84375V19.2441C5 20.3832 6.23017 21.0983 7.21973 20.5342L9.69824 19.1211C10.5445 18.6387 11.5835 18.6426 12.4258 19.1318L14.7705 20.4932L14.8164 20.5195C15.7979 21.046 17 20.3365 17 19.21V18.75H17.25C17.8023 18.75 18.2848 19.2029 18.1889 19.7468C18.1522 19.9549 18.0936 20.16 18 20.3622C17.371 21.7206 15.6699 22.3958 14.2275 21.6221L14.1426 21.5742L11.7979 20.2129C11.3406 19.9474 10.7767 19.9452 10.3174 20.207L7.83887 21.6201C6.01599 22.6593 3.75 21.3424 3.75 19.2441V6.84375C3.75 4.16862 5.91862 2 8.59375 2H13.4062Z" fill="#045EB2"/>
<path d="M21.625 12.5C21.625 15.0543 19.5543 17.125 17 17.125C14.4457 17.125 12.375 15.0543 12.375 12.5C12.375 9.94568 14.4457 7.875 17 7.875C19.5543 7.875 21.625 9.94568 21.625 12.5Z" fill="#F5F5F5"/>
<path d="M20.75 12.5C20.75 10.4289 19.0711 8.75 17 8.75C14.9289 8.75 13.25 10.4289 13.25 12.5C13.25 14.5711 14.9289 16.25 17 16.25V17.5C14.2386 17.5 12 15.2614 12 12.5C12 9.73858 14.2386 7.5 17 7.5C19.7614 7.5 22 9.73858 22 12.5C22 15.2614 19.7614 17.5 17 17.5V16.25C19.0711 16.25 20.75 14.5711 20.75 12.5Z" fill="#686868"/>
<path d="M14.6609 12.9187C14.4392 12.6734 14.4466 12.2946 14.6831 12.0581C14.9272 11.8141 15.3228 11.8141 15.5669 12.0581L16.3749 12.8661L16.3749 10.625L16.3757 10.5929C16.3924 10.2627 16.6655 10 16.9999 10C17.3343 10 17.6074 10.2626 17.6241 10.5929L17.6249 10.625L17.6249 12.8662L18.4331 12.0581L18.4564 12.0359C18.7018 11.8143 19.0806 11.8217 19.317 12.0581C19.5534 12.2946 19.5608 12.6734 19.3391 12.9187L19.3169 12.942L17.4419 14.817C17.1978 15.0611 16.802 15.061 16.558 14.8169L14.6831 12.942L14.6609 12.9187Z" fill="#045EB2"/>
</svg>

<svg fill="none" viewBox="0 0 24 24" xmlns="http://www.w3.org/2000/svg">
  <path fill="url(#Bookmark-Import-Color-24_svg__a)" d="M13.406 2.625c2.138 0 3.817 1.313 4.094 3.375-.193-.018-.302.25-.5.25a6.25 6.25 0 1 0 0 12.5l.5.25.125.132c0 1.616-1.742 2.632-3.148 1.836l-2.438-1.38a2.11 2.11 0 0 0-2.078 0l-2.438 1.38c-1.406.796-3.148-.22-3.148-1.836V6.844a4.219 4.219 0 0 1 4.219-4.219h4.812Z"/>
  <path fill="url(#Bookmark-Import-Color-24_svg__b)" d="M13.406 2a4.843 4.843 0 0 1 4.528 3.124c.227.598-.345 1.122-.984 1.127a3.594 3.594 0 0 0-3.544-3.001H8.594A3.594 3.594 0 0 0 5 6.844v12.4c0 1.14 1.23 1.854 2.22 1.29l2.478-1.413a2.735 2.735 0 0 1 2.728.01l2.345 1.362.045.027A1.485 1.485 0 0 0 17 19.21v-.46h.25c.552 0 1.035.453.939.997a2.471 2.471 0 0 1-.189.615c-.629 1.359-2.33 2.034-3.773 1.26l-.084-.048-2.345-1.361a1.484 1.484 0 0 0-1.48-.006l-2.48 1.413c-1.822 1.04-4.088-.278-4.088-2.376v-12.4A4.844 4.844 0 0 1 8.594 2h4.812Z"/>
  <path fill="#F5F5F5" d="M21.625 12.5a4.625 4.625 0 1 1-9.25 0 4.625 4.625 0 0 1 9.25 0Z"/>
  <path fill="url(#Bookmark-Import-Color-24_svg__c)" d="M20.75 12.5A3.75 3.75 0 1 0 17 16.25v1.25a5 5 0 1 1 0-10 5 5 0 0 1 0 10v-1.25a3.75 3.75 0 0 0 3.75-3.75Z"/>
  <path fill="#2B55CA" d="M14.66 12.919a.625.625 0 0 1 .907-.86l.808.807v-2.273a.625.625 0 0 1 1.25 0v2.273l.808-.808.023-.022a.625.625 0 0 1 .883.883l-.022.023-1.875 1.875a.625.625 0 0 1-.884 0l-1.875-1.875-.022-.023Z"/>
  <defs>
    <linearGradient id="Bookmark-Import-Color-24_svg__a" x1="11" x2="11" y1="2.625" y2="23.25" gradientUnits="userSpaceOnUse">
      <stop stop-color="#8FABF9"/>
      <stop offset="1" stop-color="#7295F6"/>
    </linearGradient>
    <linearGradient id="Bookmark-Import-Color-24_svg__b" x1="11" x2="11" y1="2.625" y2="23.25" gradientUnits="userSpaceOnUse">
      <stop stop-color="#3969EF"/>
      <stop offset="1" stop-color="#1E42A4"/>
    </linearGradient>
    <linearGradient id="Bookmark-Import-Color-24_svg__c" x1="17" x2="17" y1="7.5" y2="17.5" gradientUnits="userSpaceOnUse">
      <stop stop-color="#AAA"/>
      <stop offset="1" stop-color="#666"/>
    </linearGradient>
  </defs>
</svg>
